svg/u1f468_1f3fd_200d_2695.svg

<svg viewBox="0 0 128 128" xmlns="http://www.w3.org/2000/svg">
  <radialGradient id="SVGID_1_" cx="64.1392" cy="4.1762" gradientTransform="matrix(-1.08 4.500000e-03 2.900000e-03 0.5843 133.4021 121.0966)" gradientUnits="userSpaceOnUse" r="69.4576">
    <stop offset="0.5595" stop-color="#F5F5F5"/>
    <stop offset="1" stop-color="#C6C6C6"/>
  </radialGradient>
  <path d="M64.03,96.21c-25.51,0.07-51.97,7.33-51.97,25.06v3.04h1.56h1.56h97.69h1.56H116v-3.04 C116,103.54,89.54,96.28,64.03,96.21z" fill="url(#SVGID_1_)"/>
  <g id="neck_2_">
    <path d="M54.92,90.39v20.96c0,5.26,3.7,9.53,8.26,9.53h1.65c4.56,0,8.26-4.26,8.26-9.53V90.39H54.92z" fill="#99674F"/>
  </g>
  <polygon fill="#81D4FA" points="52.66,102.29 56.51,124.29 64.22,124.29 64.66,124.29 71.9,124.29 75.34,102.29 "/>
  <g>
    <linearGradient id="SVGID_2_" gradientTransform="matrix(-1 0 0 -1 104.1574 128)" gradientUnits="userSpaceOnUse" x1="26.6549" x2="26.6549" y1="10.967" y2="31.1704">
      <stop offset="0.335" stop-color="#E0E0E0"/>
      <stop offset="0.668" stop-color="#D0D0D0"/>
      <stop offset="0.9874" stop-color="#BDBDBD"/>
    </linearGradient>
    <path d="M73.08,96.46c5.92,0.43,8.72,0.94,8.72,0.94l3.13,7.3l-5.25,4.39l2.83,6.17l-5.58,8.99h-6.87 L73.08,96.46z" fill="url(#SVGID_2_)"/>
    <linearGradient id="SVGID_3_" gradientTransform="matrix(1 0 0 -1 37.7566 128)" gradientUnits="userSpaceOnUse" x1="12.7729" x2="12.7729" y1="10.967" y2="31.1704">
      <stop offset="0.335" stop-color="#E0E0E0"/>
      <stop offset="0.668" stop-color="#D0D0D0"/>
      <stop offset="0.9874" stop-color="#BDBDBD"/>
    </linearGradient>
    <path d="M54.91,96.46c-5.92,0.43-8.69,0.94-8.69,0.94l-3.13,7.3l5.25,4.39l-2.83,6.17l5.58,8.99h6.87 L54.91,96.46z" fill="url(#SVGID_3_)"/>
  </g>
  <g id="stethoscope_1_">
    <path d="M32.94,104.62c1.57-0.82,3.4-2.02,4.25-2.76 c1.92-1.67,6.47-5.97,9.86-2.94c3.66,3.21-0.1,8.27-1.55,10.37c-0.72,1.05-1.27,2.21-1.72,3.39" fill="none" stroke="#03A9F4" stroke-miterlimit="10" stroke-width="3"/>
    <linearGradient id="SVGID_4_" gradientTransform="matrix(1 0 0 -1 0 128)" gradientUnits="userSpaceOnUse" x1="34.0066" x2="24.6" y1="23.2229" y2="12.391">
      <stop offset="0" stop-color="#757575"/>
      <stop offset="1" stop-color="#000000"/>
    </linearGradient>
    <path d="M29.79,111.64c-0.49,0.08-1.02,0.29-1.54-0.21c-0.34-0.33-0.77-1.27-0.65-2.08 c0.12-0.82,1.03-1.16,2.97-1.99c1.51-0.64,2.9-1.29,4.16-2.14l-1.88-2.34c0,0-2.17,1.22-3.35,1.68c-2.09,0.8-4.47,1.71-4.86,4.35 c-0.42,2.84,1.14,4.86,2.34,5.77c0.98,0.75,1.92,1.11,2.83,1.17c1.41,0.09,2.35-0.83,2.35-2.25S30.77,111.47,29.79,111.64z" fill="url(#SVGID_4_)"/>
    <linearGradient id="SVGID_5_" gradientTransform="matrix(1 0 0 -1 0 128)" gradientUnits="userSpaceOnUse" x1="42.8127" x2="33.4061" y1="15.5753" y2="4.7435">
      <stop offset="0" stop-color="#757575"/>
      <stop offset="1" stop-color="#000000"/>
    </linearGradient>
    <path d="M37.03,117.07c-0.01,0.5-0.14,1.05,0.43,1.49c0.38,0.29,1.37,0.58,2.15,0.35 c0.79-0.24,1-1.18,1.54-3.22c0.42-1.58,0.86-3.06,1.52-4.43l2.58,1.52c0,0-0.9,2.32-1.18,3.56c-0.49,2.19-1.05,4.67-3.61,5.43 c-2.75,0.83-4.98-0.44-6.05-1.49c-0.88-0.87-1.37-1.74-1.56-2.64c-0.29-1.38,0.49-2.45,1.89-2.65 C36.15,114.8,37.05,116.08,37.03,117.07z" fill="url(#SVGID_5_)"/>
    <path d="M54.92,94.05c-4.54,0.14-7.77,2.46-9.01,3.9l2.27,1.96c0.03-0.03,2.44-2.67,6.8-2.86L54.92,94.05z" fill="#03A9F4"/>
    <path d="M86.26,102.77c-2.43-5.47-6.19-7.55-8.21-8.3c-1.85-0.69-3.65-0.97-4.97-1.08v3.07 c1.08,0.1,2.49,0.28,3.93,0.82c1.58,0.59,4.53,2.24,6.51,6.71c2.78,6.26,3.48,7.89,3.49,7.89l2.75-1.19 C89.76,110.69,89.06,109.06,86.26,102.77z" fill="#03A9F4"/>
    <linearGradient id="SVGID_6_" gradientTransform="matrix(1 0 0 -1 0 128)" gradientUnits="userSpaceOnUse" x1="87.8563" x2="93.2313" y1="18.6044" y2="7.2294">
      <stop offset="0" stop-color="#757575"/>
      <stop offset="1" stop-color="#000000"/>
    </linearGradient>
    <circle cx="90.2" cy="114.35" fill="url(#SVGID_6_)" r="7"/>
    <circle cx="90.2" cy="114.35" fill="#9E9E9E" r="4"/>
  </g>
  <g id="ears_2_">
    <path d="M91.33,50.43H36.67c-5.89,0-10.71,5.14-10.71,11.41s4.82,11.41,10.71,11.41h54.65 c5.89,0,10.71-5.14,10.71-11.41S97.22,50.43,91.33,50.43z" fill="#99674F"/>
  </g>
  <g id="head_1_">
    <path d="M64,11.07L64,11.07L64,11.07c-17.4,0-33.52,18.61-33.52,45.4c0,26.64,16.61,39.81,33.52,39.81 S97.52,83.1,97.52,56.46C97.52,29.68,81.4,11.07,64,11.07z" fill="#BA8D68"/>
  </g>
  <g id="eyebrows">
    <path d="M39.98,50.73c2.99-4.23,9.78-4.63,13.67-1.48c0.62,0.5,1.44,1.2,1.68,1.98 c0.4,1.27-0.82,2.26-2.01,1.96c-0.76-0.19-1.47-0.6-2.22-0.83c-1.37-0.43-2.36-0.55-3.59-0.55c-1.82-0.01-2.99,0.22-4.72,0.92 c-0.71,0.29-1.29,0.75-2.1,0.41C39.77,52.75,39.42,51.56,39.98,50.73z" fill="#613E31"/>
    <path d="M86.04,53.13c-0.29-0.13-0.57-0.29-0.86-0.41c-1.78-0.74-2.79-0.93-4.72-0.92 c-1.7,0.01-2.71,0.24-4.04,0.69c-0.81,0.28-1.84,0.98-2.74,0.71c-1.32-0.4-1.28-1.84-0.56-2.76c0.86-1.08,2.04-1.9,3.29-2.44 c2.9-1.26,6.44-1.08,9.17,0.55c0.89,0.53,1.86,1.26,2.4,2.18C88.77,52.03,87.58,53.76,86.04,53.13z" fill="#613E31"/>
  </g>
  <g id="eyes_2_">
    <ellipse cx="47.56" cy="58.81" fill="#49362E" rx="4.93" ry="5.1"/>
    <ellipse cx="80.44" cy="58.81" fill="#49362E" rx="4.93" ry="5.1"/>
  </g>
  <path id="mouth_2_" d="M72.42,76.14c-3.18,1.89-13.63,1.89-16.81,0c-1.83-1.09-3.7,0.58-2.94,2.24 c0.75,1.63,6.44,5.42,11.37,5.42s10.55-3.79,11.3-5.42C76.09,76.72,74.25,75.05,72.42,76.14z" fill="#5D4037"/>
  <path id="nose_2_" d="M67.86,68.06c-0.11-0.04-0.21-0.07-0.32-0.08h-7.08c-0.11,0.01-0.22,0.04-0.32,0.08 c-0.64,0.26-0.99,0.92-0.69,1.63c0.3,0.71,1.71,2.69,4.55,2.69s4.25-1.99,4.55-2.69C68.85,68.98,68.5,68.32,67.86,68.06z" fill="#99674F"/>
  <g id="hairGroup">
    <path id="hair_7_" d="M64,4.03L64,4.03c-0.01,0-0.01,0-0.02,0s-0.01,0-0.02,0l0,0 C18.53,4.27,27.84,56.17,27.84,56.17s2.04,5.35,2.97,7.71c0.13,0.34,0.63,0.3,0.71-0.05c0.97-4.34,4.46-19.73,6.22-24.41 c1.04-2.76,3.9-4.36,6.79-3.83c4.45,0.81,11.55,1.81,19.37,1.81c0.03,0,0.06,0,0.08,0s0.06,0,0.08,0c7.82,0,14.92-1,19.37-1.81 c2.9-0.53,5.76,1.08,6.79,3.83c1.75,4.66,5.22,19.96,6.2,24.36c0.08,0.36,0.58,0.39,0.71,0.05l2.98-7.67 C100.13,56.17,109.44,4.27,64,4.03z" fill="#543930"/>
    <radialGradient id="hairHighlights_1_" cx="63.9835" cy="80.9011" gradientTransform="matrix(1 0 0 -1.1282 0 138.3704)" gradientUnits="userSpaceOnUse" r="38.0925">
      <stop offset="0.7945" stop-color="#6D4C41" stop-opacity="0"/>
      <stop offset="1" stop-color="#6D4C41"/>
    </radialGradient>
    <path id="hairHighlights" d="M100.13,56.17c0,0,9.31-51.9-36.13-52.14v0 c-0.01,0-0.01,0-0.02,0h0c-0.01,0-0.01,0-0.02,0l0,0c-0.71,0-1.4,0.02-2.08,0.05c-1.35,0.06-2.66,0.16-3.92,0.31 c-0.01,0-0.03,0-0.04,0c-0.09,0.01-0.17,0.03-0.26,0.04C19.42,9.24,27.84,56.17,27.84,56.17l2.98,7.68 c0.13,0.34,0.62,0.31,0.7-0.05c0.98-4.39,4.46-19.71,6.22-24.37c1.04-2.76,3.9-4.36,6.79-3.83c4.45,0.81,11.55,1.81,19.37,1.81 c0.03,0,0.06,0,0.08,0s0.06,0,0.08,0c7.82,0,14.92-1,19.37-1.81c2.9-0.53,5.76,1.08,6.79,3.83c1.76,4.68,5.25,20.1,6.21,24.42 c0.08,0.36,0.57,0.39,0.7,0.05C98.08,61.54,100.13,56.17,100.13,56.17z" fill="url(#hairHighlights_1_)"/>
  </g>
</svg>

<svg viewBox="0 0 128 128" xmlns="http://www.w3.org/2000/svg">
  <defs>
    <radialGradient id="SVGID_1_" cx="-58.822214" cy="212.373918" gradientTransform="matrix(-1.08 0.0045 0.0029 0.5843 0 0)" gradientUnits="userSpaceOnUse" r="69.4576">
      <stop offset="0.5595" stop-color="#F5F5F5"/>
      <stop offset="1" stop-color="#C6C6C6"/>
    </radialGradient>
    <linearGradient id="SVGID_2_" gradientTransform="matrix(-1 0 0 -1 0 0)" gradientUnits="userSpaceOnUse" x1="-77.5025" x2="-77.5025" y1="-117.033" y2="-96.8296">
      <stop offset="0.335" stop-color="#E0E0E0"/>
      <stop offset="0.668" stop-color="#D0D0D0"/>
      <stop offset="0.9874" stop-color="#BDBDBD"/>
    </linearGradient>
    <linearGradient id="SVGID_3_" gradientTransform="matrix(1 0 0 -1 0 0)" gradientUnits="userSpaceOnUse" x1="50.5295" x2="50.5295" y1="-117.033" y2="-96.8296">
      <stop offset="0.335" stop-color="#E0E0E0"/>
      <stop offset="0.668" stop-color="#D0D0D0"/>
      <stop offset="0.9874" stop-color="#BDBDBD"/>
    </linearGradient>
    <linearGradient id="SVGID_4_" gradientTransform="matrix(1 0 0 -1 0 0)" gradientUnits="userSpaceOnUse" x1="34.0066" x2="24.6" y1="-104.7771" y2="-115.609">
      <stop offset="0" stop-color="#757575"/>
      <stop offset="1" stop-color="#000000"/>
    </linearGradient>
    <linearGradient id="SVGID_5_" gradientTransform="matrix(1 0 0 -1 0 0)" gradientUnits="userSpaceOnUse" x1="42.8127" x2="33.4061" y1="-112.4247" y2="-123.2565">
      <stop offset="0" stop-color="#757575"/>
      <stop offset="1" stop-color="#000000"/>
    </linearGradient>
    <linearGradient id="SVGID_6_" gradientTransform="matrix(1 0 0 -1 0 0)" gradientUnits="userSpaceOnUse" x1="87.8563" x2="93.2313" y1="-109.3956" y2="-120.7706">
      <stop offset="0" stop-color="#757575"/>
      <stop offset="1" stop-color="#000000"/>
    </linearGradient>
    <radialGradient id="hairHighlights_1_" cx="63.9835" cy="-41.745948" gradientTransform="matrix(1 0 0 -1.1282 0 0)" gradientUnits="userSpaceOnUse" r="38.0925">
      <stop offset="0.7945" stop-color="#6D4C41" stop-opacity="0"/>
      <stop offset="1" stop-color="#6D4C41"/>
    </radialGradient>
  </defs>
  <path d="M64.03,96.21 C38.52,96.28 12.06,103.54 12.06,121.27 L12.06,124.31 L13.62,124.31 L15.18,124.31 L112.87,124.31 L114.43,124.31 L116,124.31 L116,121.27 C116,103.54 89.54,96.28 64.03,96.21 Z" fill="url(#SVGID_1_)"/>
  <path d="M54.92,90.39 L54.92,111.35 C54.92,116.61 58.62,120.88 63.18,120.88 L64.83,120.88 C69.39,120.88 73.09,116.62 73.09,111.35 L73.09,90.39 L54.92,90.39 Z" fill="#99674F"/>
  <path d="M52.66,102.29 L56.51,124.29 L64.22,124.29 L64.66,124.29 L71.9,124.29 L75.34,102.29 Z" fill="#81D4FA"/>
  <path d="M73.08,96.46 C79,96.89 81.8,97.4 81.8,97.4 L84.93,104.7 L79.68,109.09 L82.51,115.26 L76.93,124.25 L70.06,124.25 L73.08,96.46 Z" fill="url(#SVGID_2_)"/>
  <path d="M54.91,96.46 C48.99,96.89 46.22,97.4 46.22,97.4 L43.09,104.7 L48.34,109.09 L45.51,115.26 L51.09,124.25 L57.96,124.25 L54.91,96.46 Z" fill="url(#SVGID_3_)"/>
  <path d="M32.246,103.29 Q34.787,101.963 36.205,100.729 Q36.296,100.65 36.497,100.473 Q43.833,94.033 48.05,97.802 Q52.562,101.759 46.914,109.884 Q46.789,110.063 46.734,110.142 Q45.875,111.395 45.182,113.214 L42.378,112.146 Q43.2,109.992 44.266,108.438 Q44.324,108.353 44.45,108.171 Q48.569,102.247 46.05,100.038 Q43.815,98.041 38.477,102.727 Q38.27,102.908 38.175,102.991 Q36.49,104.458 33.634,105.95 Z" fill="#03A9F4"/>
  <path d="M29.79,111.64 C29.3,111.72 28.77,111.93 28.25,111.43 C27.91,111.1 27.48,110.16 27.6,109.35 C27.72,108.53 28.63,108.19 30.57,107.36 C32.08,106.72 33.47,106.07 34.73,105.22 L32.85,102.88 C32.85,102.88 30.68,104.1 29.5,104.56 C27.41,105.36 25.03,106.27 24.64,108.91 C24.22,111.75 25.78,113.77 26.98,114.68 C27.96,115.43 28.9,115.79 29.81,115.85 C31.22,115.94 32.16,115.02 32.16,113.6 C32.16,112.18 30.77,111.47 29.79,111.64 Z" fill="url(#SVGID_4_)"/>
  <path d="M37.03,117.07 C37.02,117.57 36.89,118.12 37.46,118.56 C37.84,118.85 38.83,119.14 39.61,118.91 C40.4,118.67 40.61,117.73 41.15,115.69 C41.57,114.11 42.01,112.63 42.67,111.26 L45.25,112.78 C45.25,112.78 44.35,115.1 44.07,116.34 C43.58,118.53 43.02,121.01 40.46,121.77 C37.71,122.6 35.48,121.33 34.41,120.28 C33.53,119.41 33.04,118.54 32.85,117.64 C32.56,116.26 33.34,115.19 34.74,114.99 C36.15,114.8 37.05,116.08 37.03,117.07 Z" fill="url(#SVGID_5_)"/>
  <path d="M54.92,94.05 C50.38,94.19 47.15,96.51 45.91,97.95 L48.18,99.91 C48.21,99.88 50.62,97.24 54.98,97.05 L54.92,94.05 Z" fill="#03A9F4"/>
  <path d="M86.26,102.77 C83.83,97.3 80.07,95.22 78.05,94.47 C76.2,93.78 74.4,93.5 73.08,93.39 L73.08,96.46 C74.16,96.56 75.57,96.74 77.01,97.28 C78.59,97.87 81.54,99.52 83.52,103.99 C86.3,110.25 87,111.88 87.01,111.88 L89.76,110.69 C89.76,110.69 89.06,109.06 86.26,102.77 Z" fill="#03A9F4"/>
  <path d="M97.2,114.35 A7 7 0 1 1 83.2,114.35 A7 7 0 1 1 97.2,114.35 Z" fill="url(#SVGID_6_)"/>
  <path d="M94.2,114.35 A4 4 0 1 1 86.2,114.35 A4 4 0 1 1 94.2,114.35 Z" fill="#9E9E9E"/>
  <path d="M91.33,50.43 L36.67,50.43 C30.78,50.43 25.96,55.57 25.96,61.84 C25.96,68.11 30.78,73.25 36.67,73.25 L91.32,73.25 C97.21,73.25 102.03,68.11 102.03,61.84 C102.03,55.57 97.22,50.43 91.33,50.43 Z" fill="#99674F"/>
  <path d="M64,11.07 L64,11.07 L64,11.07 C46.6,11.07 30.48,29.68 30.48,56.47 C30.48,83.11 47.09,96.28 64,96.28 C80.91,96.28 97.52,83.1 97.52,56.46 C97.52,29.68 81.4,11.07 64,11.07 Z" fill="#BA8D68"/>
  <path d="M39.98,50.73 C42.97,46.5 49.76,46.1 53.65,49.25 C54.27,49.75 55.09,50.45 55.33,51.23 C55.73,52.5 54.51,53.49 53.32,53.19 C52.56,53 51.85,52.59 51.1,52.36 C49.73,51.93 48.74,51.81 47.51,51.81 C45.69,51.8 44.52,52.03 42.79,52.73 C42.08,53.02 41.5,53.48 40.69,53.14 C39.77,52.75 39.42,51.56 39.98,50.73 Z" fill="#613E31"/>
  <path d="M86.04,53.13 C85.75,53 85.47,52.84 85.18,52.72 C83.4,51.98 82.39,51.79 80.46,51.8 C78.76,51.81 77.75,52.04 76.42,52.49 C75.61,52.77 74.58,53.47 73.68,53.2 C72.36,52.8 72.4,51.36 73.12,50.44 C73.98,49.36 75.16,48.54 76.41,48 C79.31,46.74 82.85,46.92 85.58,48.55 C86.47,49.08 87.44,49.81 87.98,50.73 C88.77,52.03 87.58,53.76 86.04,53.13 Z" fill="#613E31"/>
  <path d="M52.49,58.81 A4.93 5.1 0 1 1 42.63,58.81 A4.93 5.1 0 1 1 52.49,58.81 Z" fill="#49362E"/>
  <path d="M85.37,58.81 A4.93 5.1 0 1 1 75.51,58.81 A4.93 5.1 0 1 1 85.37,58.81 Z" fill="#49362E"/>
  <path id="mouth_2_" d="M72.42,76.14 C69.24,78.03 58.79,78.03 55.61,76.14 C53.78,75.05 51.91,76.72 52.67,78.38 C53.42,80.01 59.11,83.8 64.04,83.8 C68.97,83.8 74.59,80.01 75.34,78.38 C76.09,76.72 74.25,75.05 72.42,76.14 Z" fill="#5D4037"/>
  <path id="nose_2_" d="M67.86,68.06 C67.75,68.02 67.65,67.99 67.54,67.98 L60.46,67.98 C60.35,67.99 60.24,68.02 60.14,68.06 C59.5,68.32 59.15,68.98 59.45,69.69 C59.75,70.4 61.16,72.38 64,72.38 C66.84,72.38 68.25,70.39 68.55,69.69 C68.85,68.98 68.5,68.32 67.86,68.06 Z" fill="#99674F"/>
  <path id="hair_7_" d="M64,4.03 L64,4.03 C63.99,4.03 63.99,4.03 63.98,4.03 C63.97,4.03 63.97,4.03 63.96,4.03 L63.96,4.03 C18.53,4.27 27.84,56.17 27.84,56.17 C27.84,56.17 29.88,61.52 30.81,63.88 C30.94,64.22 31.44,64.18 31.52,63.83 C32.49,59.49 35.98,44.1 37.74,39.42 C38.78,36.66 41.64,35.06 44.53,35.59 C48.98,36.4 56.08,37.4 63.9,37.4 C63.93,37.4 63.96,37.4 63.98,37.4 C64,37.4 64.04,37.4 64.06,37.4 C71.88,37.4 78.98,36.4 83.43,35.59 C86.33,35.06 89.19,36.67 90.22,39.42 C91.97,44.08 95.44,59.38 96.42,63.78 C96.5,64.14 97,64.17 97.13,63.83 L100.11,56.16 C100.13,56.17 109.44,4.27 64,4.03 Z" fill="#543930"/>
  <path id="hairHighlights" d="M100.13,56.17 C100.13,56.17 109.44,4.27 64,4.03 L64,4.03 C63.99,4.03 63.99,4.03 63.98,4.03 L63.98,4.03 C63.97,4.03 63.97,4.03 63.96,4.03 L63.96,4.03 C63.25,4.03 62.56,4.05 61.88,4.08 C60.53,4.14 59.22,4.24 57.96,4.39 C57.95,4.39 57.93,4.39 57.92,4.39 C57.83,4.4 57.75,4.42 57.66,4.43 C19.42,9.24 27.84,56.17 27.84,56.17 L30.82,63.85 C30.95,64.19 31.44,64.16 31.52,63.8 C32.5,59.41 35.98,44.09 37.74,39.43 C38.78,36.67 41.64,35.07 44.53,35.6 C48.98,36.41 56.08,37.41 63.9,37.41 C63.93,37.41 63.96,37.41 63.98,37.41 C64,37.41 64.04,37.41 64.06,37.41 C71.88,37.41 78.98,36.41 83.43,35.6 C86.33,35.07 89.19,36.68 90.22,39.43 C91.98,44.11 95.47,59.53 96.43,63.85 C96.51,64.21 97,64.24 97.13,63.9 C98.08,61.54 100.13,56.17 100.13,56.17 Z" fill="url(#hairHighlights_1_)"/>
</svg>
